assets/image-gen/regular-icon/bcc.svg

<?xml version="1.0" encoding="UTF-8"?>
<svg width="1024pt" height="1024pt" style="isolation:isolate" viewBox="0 0 1024 1024"
    xmlns="http://www.w3.org/2000/svg">
    <defs>
        <clipPath id="a">
            <rect width="1024" height="1024" />
        </clipPath>
    </defs>
    <g clip-path="url(#a)">
        <rect width="1024" height="1024" fill-opacity="0" />
        <g style="isolation:isolate">
            <path
                d="m18 702c-3.558-186.14 36.452-334.47 104.92-425.06 8.32-11.008 15.096-31.146 15.123-44.944 0.053-28.008 2.739-63.322 7.952-81 33.667-21.222 76.01-28.879 127-23 111.26-62.584 239.94-76.241 386-41 42.377-15.007 84.721-19.663 102.22-17.319 13.676 1.832 25.445 14.501 26.266 28.275q1.513 25.377 5.86 38.297c4.224 12.554 15.58 30.014 25.345 38.964 128.44 117.74 196.15 303.45 181.31 542.78q-51.215 58.529-145.86 103.16c-4.492 2.119-8.809-0.138-9.632-5.036-4.901-29.151-11.871-56.455-29.508-73.125-11.263-30.81-23.91-47.456-34-52-1.005-27.338 2.015-59.318 2.48-61.293 1.391-5.909 6.312-13.856 10.983-17.734 29.511-24.502 63.475-48.691 82.537-103.97s10.177-119.71 3-148-55.296-102.76-111-136-107-41.667-148-42-125.23 21.977-187 75-76.411 122.12-73 196c3.411 73.878 79.365 168.22 139 187s106.31 28.301 154.03 31.116c8.264 0.488 21.175 3.476 28.814 6.669 141.66 59.215 117.66 195.72-45.862 204.37-8.819 0.467-23.137 1.228-31.955 1.698-261.27 13.934-476.18-40.322-587.02-181.85z"
                fill="#1a2b3c" />
        </g>
        <g style="isolation:isolate">
            <ellipse cx="630.5" cy="425" rx="228.5" ry="207" fill="#fcc21a" vector-effect="non-scaling-stroke" />
            <ellipse cx="723.4" cy="621.25" rx="54.73" ry="35.751" fill="#fcc21a" vector-effect="non-scaling-stroke" />
            <path
                d="m694.91 368.46c-5.645-27.576 8.208-53.738 30.918-58.387 22.709-4.65 45.73 13.964 51.375 41.539 5.646 27.576-8.208 53.739-30.917 58.388-22.71 4.649-45.73-13.964-51.376-41.54z"
                fill="#2f2f2f" />
            <path d="m572 485 47 44 40-53 40 39 26-51" fill="none" stroke="#2f2f2f" stroke-linecap="round"
                stroke-linejoin="round" stroke-miterlimit="3" stroke-width="16" vector-effect="non-scaling-stroke" />
            <path
                d="m478.66 399.43c-4.978-27.704 9.503-53.524 32.318-57.624s45.379 15.064 50.358 42.768c4.978 27.704-9.503 53.524-32.318 57.624s-45.379-15.064-50.358-42.768z"
                fill="#2f2f2f" />
        </g>
        <g style="isolation:isolate">
            <path
                d="m806 828c5.569 22.955 20.589 38.975 35.62 44.532 5.177 1.914 13.715 2.334 19.054 0.936 94.976-24.856 147.66-74.169 148.28-140.47 0.026-2.76-1.019-6.97-2.333-9.397-1.617-2.988-4.941-11.312-7.62-10.603-40.013 43.475-91.287 79.535-145.58 103.2-3.542 1.544-7.024-0.28-7.772-4.071-7.594-38.493-16.584-63.483-27.645-68.132 4.086 31.092 0.096 61.768-12 84z"
                fill="#fff" />
        </g>
        <g style="isolation:isolate">
            <path
                d="m18 701c-7.807 10.294-9.797 27.304-4 45 139 238 805.5 261 788 88 41.857-82.002 6.21-149.32-86.147-192.3-11.509-5.356-30.987-11.581-43.468-13.892q-13.385-2.479-49.385-3.812c-36-1.333-74.667-14-107-28s-108.31-92.346-111-161 31-122 71-155 96.732-57.59 154-58 99 20.333 138 49 69.216 62.325 77 120 2.667 94.333-20 130q-22.667 35.667-54.098 57.313c-2.153 1.483-5.412 4.179-7.272 6.018-5.546 5.48-19.859 39.667-21.63 74.169l39 28.5 6.014-51.116c1.096-9.319 8.063-21.478 15.547-27.136 39.712-30.021 68.553-67.376 79.439-102.75s16.397-106.39 2-147-41.278-102.67-113-142-109.33-42-152-42-134.26 28.538-188 75-82.374 126.28-73 207 76.741 166.58 140 187 117.89 28.534 155.02 30.291c8.269 0.391 21.22 3.215 28.902 6.301 135.41 54.408 120.58 180.41-44.997 196.83-8.788 0.871-23.079 1.996-31.895 2.51-271.89 15.853-472.19-44.783-587.03-178.93"
                fill="#fff" />
            <path d="m801 834c47.939-80.962 0.303-154.6-87-193" fill="none" stroke="#bfbfbf" stroke-linecap="round"
                stroke-miterlimit="3" stroke-width="10" vector-effect="non-scaling-stroke" />
        </g>
        <g stroke="#95a8b8" stroke-linecap="round" stroke-miterlimit="3" stroke-width="22" style="isolation:isolate">
            <line x1="1004" x2="813" y1="278" y2="405" vector-effect="non-scaling-stroke" />
            <line x1="246" x2="457" y1="461" y2="487" vector-effect="non-scaling-stroke" />
            <line x1="259" x2="484" y1="531" y2="532" vector-effect="non-scaling-stroke" />
            <line x1="1010" x2="804" y1="358" y2="458" vector-effect="non-scaling-stroke" />
        </g>
    </g>
</svg>

<?xml version="1.0" encoding="UTF-8" standalone="no"?>
<!-- Generator: Gravit.io --><svg xmlns="http://www.w3.org/2000/svg" xmlns:xlink="http://www.w3.org/1999/xlink"
    style="isolation:isolate" viewBox="0 0 1024 1024" width="1024pt" height="1024pt">
    <defs>
        <clipPath id="_clipPath_fMyMznd49VdMAlOQCwvRu1ptcKUBi7HF">
            <rect width="1024" height="1024" />
        </clipPath>
    </defs>
    <g clip-path="url(#_clipPath_fMyMznd49VdMAlOQCwvRu1ptcKUBi7HF)">
        <rect width="1024" height="1024" style="fill:rgb(255,0,0)" fill-opacity="0" />
        <g style="isolation:isolate">
            <path
                d=" M 18 702 C 14.442 515.856 54.452 367.533 122.925 276.944 C 131.245 265.936 138.021 245.798 138.048 232 C 138.101 203.992 140.787 168.678 146 151 C 179.667 129.778 222.01 122.121 273 128 C 384.261 65.416 512.937 51.759 659 87 C 701.377 71.993 743.721 67.337 761.221 69.681 C 774.897 71.513 786.666 84.182 787.487 97.956 Q 789 123.333 793.347 136.253 C 797.571 148.807 808.927 166.267 818.692 175.217 C 947.135 292.957 1014.842 478.664 1000 718 Q 949.785 776.529 855.14 821.161 C 850.648 823.28 846.331 821.023 845.508 816.125 C 840.607 786.974 833.637 759.67 816 743 C 804.737 712.19 791.09 695.544 781 691 C 779.995 663.662 783.015 631.682 783.48 629.707 C 784.871 623.798 789.792 615.851 794.463 611.973 C 823.974 587.471 857.938 563.282 877 508 C 896.062 452.718 887.177 388.291 880 360 C 872.823 331.709 824.704 257.237 769 224 C 713.296 190.763 662 182.333 621 182 C 580 181.667 495.771 203.977 434 257 C 372.229 310.023 357.589 379.123 361 453 C 364.411 526.877 440.365 621.215 500 640 C 559.635 658.785 605.308 668.301 653.026 671.116 C 661.29 671.604 674.201 674.592 681.84 677.785 C 823.5 737 800.5 870.5 636.978 879.154 C 628.159 879.621 613.841 880.382 605.023 880.852 C 343.75 894.786 128.841 843.53 18 702 Z "
                fill="#1a2b3c" />
        </g>
        <g style="isolation:isolate">
            <ellipse vector-effect="non-scaling-stroke" cx="630.5000000000001" cy="425" rx="228.5"
                ry="207.00000000000003" fill="rgb(252,194,26)" />
            <ellipse vector-effect="non-scaling-stroke" cx="723.3970990273164" cy="621.2494529540481"
                rx="54.72967432873463" ry="35.75054704595186" fill="rgb(252,194,26)" />
            <path
                d=" M 694.906 368.464 C 689.261 340.888 703.114 314.726 725.824 310.077 C 748.533 305.427 771.554 324.041 777.199 351.616 C 782.845 379.192 768.991 405.355 746.282 410.004 C 723.572 414.653 700.552 396.04 694.906 368.464 Z "
                fill="rgb(47,47,47)" />
            <path d=" M 572 485 L 619 529 L 659 476 L 699 515 L 725 464" fill="none" vector-effect="non-scaling-stroke"
                stroke-width="16" stroke="rgb(47,47,47)" stroke-linejoin="round" stroke-linecap="round"
                stroke-miterlimit="3" />
            <path
                d=" M 478.662 399.428 C 473.684 371.724 488.165 345.904 510.98 341.804 C 533.795 337.704 556.359 356.868 561.338 384.572 C 566.316 412.276 551.835 438.096 529.02 442.196 C 506.205 446.296 483.641 427.132 478.662 399.428 Z "
                fill="rgb(47,47,47)" />
        </g>
        <path
            d=" M 806 828 C 811.569 850.955 826.589 866.975 841.62 872.532 C 846.797 874.446 855.335 874.866 860.674 873.468 C 955.65 848.612 1008.336 799.299 1008.953 733 C 1008.979 730.24 1007.934 726.03 1006.62 723.603 C 1005.003 720.615 1001.679 717.291 999 718 C 958.987 761.475 907.713 797.535 853.417 821.203 C 849.875 822.747 846.393 820.923 845.645 817.132 C 838.051 778.639 829.061 752.649 818 748 C 822.086 779.092 818.096 805.768 806 828 Z "
            fill="rgb(255,255,255)" />
        <g style="isolation:isolate">
            <path
                d=" M 18 702 C 10.193 712.294 8.203 728.304 14 746 C 153 984 819.5 1007 802 834 C 843.857 751.998 808.21 684.685 715.853 641.704 C 704.344 636.348 684.866 630.123 672.385 627.812 Q 659 625.333 623 624 C 587 622.667 548.333 610 516 596 C 483.667 582 407.69 503.654 405 435 C 402.31 366.346 436 313 476 280 C 516 247 572.732 222.41 630 222 C 687.268 221.59 729 242.333 768 271 C 807 299.667 837.216 333.325 845 391 C 852.784 448.675 847.667 485.333 825 521 Q 802.333 556.667 770.902 578.313 C 768.749 579.796 765.49 582.492 763.63 584.331 C 758.084 589.811 743.771 623.998 742 658.5 L 781 687 L 787.014 635.884 C 788.11 626.565 795.077 614.406 802.561 608.748 C 842.273 578.727 866.114 542.372 877 507 C 887.886 471.628 894.397 400.613 880 360 C 865.603 319.387 840.722 263.334 769 224 C 697.278 184.666 663.667 182 621 182 C 578.333 182 487.735 210.538 434 257 C 380.265 303.462 351.626 372.281 361 453 C 370.374 533.719 436.741 619.585 500 640 C 563.259 660.415 615.892 669.534 653.017 671.291 C 661.286 671.682 674.237 674.506 681.919 677.592 C 817.333 732 802.5 862 636.922 878.421 C 628.134 879.292 613.843 880.417 605.027 880.931 C 333.141 896.784 132.838 836.148 18 702"
                fill="rgb(255,255,255)" />
            <path d=" M 801 834 C 848.939 753.038 801.303 679.401 714 641" fill="none"
                vector-effect="non-scaling-stroke" stroke-width="10" stroke="rgb(191,191,191)" stroke-linejoin="miter"
                stroke-linecap="round" stroke-miterlimit="3" />
        </g>
        <g style="isolation:isolate">
            <line x1="1004" y1="278" x2="813" y2="405" vector-effect="non-scaling-stroke" stroke-width="22"
                stroke="rgb(149,168,184)" stroke-linejoin="miter" stroke-linecap="round" stroke-miterlimit="3" />
            <line x1="246" y1="461" x2="457" y2="487" vector-effect="non-scaling-stroke" stroke-width="22"
                stroke="rgb(149,168,184)" stroke-linejoin="miter" stroke-linecap="round" stroke-miterlimit="3" />
            <line x1="259" y1="531" x2="484" y2="532" vector-effect="non-scaling-stroke" stroke-width="22"
                stroke="rgb(149,168,184)" stroke-linejoin="miter" stroke-linecap="round" stroke-miterlimit="3" />
            <line x1="1010" y1="358" x2="804" y2="458" vector-effect="non-scaling-stroke" stroke-width="22"
                stroke="rgb(149,168,184)" stroke-linejoin="miter" stroke-linecap="round" stroke-miterlimit="3" />
        </g>
    </g>
</svg>
